X:63
T:Humours of California, The
C:Joe Buchanan's Scottish Tome - Page 243.2
I:243 2
Z:Carl Allison
R:Hornpipe
L:1/8
M:4/4
K:D
((3DEF) | "G"G>FG>B "D7"A>GE>D | "G"G>Bd>g "C"e2 "D7"((3def) | "G"g>fg>d e>dB>G | "Am"A>BA>G E2 ((3DEF) |
"G"G>FG>B A>GE>D | "G"G>Bd>g "C"e2 "D7"((3def) | "G"g>fg>d "Em"e>dB>G | "Am"A>G"D7"E>F "G"G2 :|
((3def) | "Em"g>fe>(g "D"f>e)d>f | "Em"e>de>f "Bm"e>dB>d | "G"g>fg>d "G/D"e>dB>G | "Am"A>BA>G "C"E2 "D7"((3DEF) |
"G"G>FG>B "D7"A>GE>D | "G"G>Bd>g "C"e2 "D7"((3def) | "G"g>fg>d "Em"e>dB>G | "Am"A>G"D7"E>F "G"G2 :|

